packages/foundations/assets/icons/functional/images/layout/zoom_in_32.svg

<svg width="32" height="32" viewBox="0 0 32 32" fill="none" xmlns="http://www.w3.org/2000/svg">
<g clip-path="url(#clip0_185_1514)">
<path fill-rule="evenodd" clip-rule="evenodd" d="M12 2C17.5312 2 22 6.46875 22 12C22 14.4062 21.1562 16.5938 19.75 18.3125L29.7188 28.2812C29.9375 28.5 30 28.75 30 29C30 29.5938 29.5625 30 29.0312 30C28.7812 30 28.5 29.9375 28.2812 29.7188L18.3125 19.75C16.5938 21.1562 14.4062 22 12 22C6.46875 22 2 17.5312 2 12C2 6.46875 6.46875 2 12 2ZM12 4C7.59375 4 4 7.59375 4 12C4 16.4062 7.59375 20 12 20C16.4062 20 20 16.4062 20 12C20 7.59375 16.4062 4 12 4ZM12 7C12.4375 7 13 7.3125 13 8V11H16C16.5625 11 17 11.4375 17 12C17 12.4688 16.5625 13 16 13H13V16C13 16.5625 12.5625 17 12 17C11.5 17 11 16.5625 11 16.125V13H8C7.4375 13 7 12.5625 7 12C7 11.5312 7.28125 11 8 11H11V8C11 7.4375 11.4375 7 12 7Z" fill="#1A1C1F"/>
</g>
<defs>
<clipPath id="clip0_185_1514">
<rect width="32" height="32" fill="white"/>
</clipPath>
</defs>
</svg>

<svg xmlns="http://www.w3.org/2000/svg" width="32" height="32" fill="none"><g clip-path="url(#a)"><path fill="#1A1C1F" fill-rule="evenodd" d="M12 2a9.99 9.99 0 0 1 10 10 9.9 9.9 0 0 1-2.25 6.313l9.969 9.968A.96.96 0 0 1 30 29c0 .594-.437 1-.969 1-.25 0-.531-.062-.75-.281l-9.968-9.969A9.9 9.9 0 0 1 12 22 9.99 9.99 0 0 1 2 12 9.99 9.99 0 0 1 12 2m0 2c-4.406 0-8 3.594-8 8s3.594 8 8 8 8-3.594 8-8-3.594-8-8-8m0 3c.438 0 1 .313 1 1v3h3c.563 0 1 .438 1 1 0 .469-.437 1-1 1h-3v3c0 .563-.437 1-1 1-.5 0-1-.437-1-.875V13H8c-.562 0-1-.437-1-1 0-.469.281-1 1-1h3V8c0-.562.438-1 1-1" clip-rule="evenodd"/></g><defs><clipPath id="a"><path fill="#fff" d="M0 0h32v32H0z"/></clipPath></defs></svg>
